build/assets/img/dist/icons/ConnectLine.svg

<svg width="1182" height="81" viewBox="0 0 1182 81" fill="none" xmlns="http://www.w3.org/2000/svg">
<path d="M0.198568 15C0.198568 20.891 4.9742 25.6667 10.8652 25.6667C16.7563 25.6667 21.5319 20.891 21.5319 15C21.5319 9.10896 16.7563 4.33333 10.8652 4.33333C4.9742 4.33333 0.198568 9.10896 0.198568 15ZM232.914 16.4142C233.695 15.6332 233.695 14.3668 232.914 13.5858L220.186 0.857864C219.405 0.0768158 218.139 0.0768158 217.358 0.857864C216.577 1.63891 216.577 2.90524 217.358 3.68629L228.672 15L217.358 26.3137C216.577 27.0948 216.577 28.3611 217.358 29.1421C218.139 29.9232 219.405 29.9232 220.186 29.1421L232.914 16.4142ZM10.8652 17L231.5 17V13L10.8652 13L10.8652 17Z" fill="#B98CFF"/>
<path d="M495.914 16.4142C496.695 15.6332 496.695 14.3668 495.914 13.5858L483.186 0.857864C482.405 0.0768158 481.139 0.0768158 480.358 0.857864C479.577 1.63891 479.577 2.90524 480.358 3.68629L491.672 15L480.358 26.3137C479.577 27.0948 479.577 28.3611 480.358 29.1421C481.139 29.9232 482.405 29.9232 483.186 29.1421L495.914 16.4142ZM230 13C228.895 13 228 13.8954 228 15C228 16.1046 228.895 17 230 17V13ZM230 17L494.5 17V13L230 13V17Z" fill="#B98CFF"/>
<path d="M837.914 16.4142C838.695 15.6332 838.695 14.3668 837.914 13.5858L825.186 0.857864C824.405 0.0768158 823.139 0.0768158 822.358 0.857864C821.577 1.63891 821.577 2.90524 822.358 3.68629L833.672 15L822.358 26.3137C821.577 27.0948 821.577 28.3611 822.358 29.1421C823.139 29.9232 824.405 29.9232 825.186 29.1421L837.914 16.4142ZM836.5 13L493.365 13V17L836.5 17V13Z" fill="#B98CFF"/>
<path d="M835 13C833.895 13 833 13.8954 833 15C833 16.1046 833.895 17 835 17L835 13ZM1159.82 70C1159.82 75.891 1164.59 80.6667 1170.48 80.6667C1176.37 80.6667 1181.15 75.891 1181.15 70C1181.15 64.109 1176.37 59.3333 1170.48 59.3333C1164.59 59.3333 1159.82 64.109 1159.82 70ZM1115.48 15L1115.48 17L1115.48 15ZM835 17L1115.48 17L1115.48 13L835 13L835 17ZM1115.48 17C1144.75 17 1168.48 40.7289 1168.48 70H1172.48C1172.48 38.5198 1146.96 13 1115.48 13L1115.48 17Z" fill="#B98CFF"/>
</svg>

<svg width="1182" height="81" fill="none" xmlns="http://www.w3.org/2000/svg"><path d="M.199 15c0 5.891 4.775 10.667 10.666 10.667S21.532 20.89 21.532 15 16.756 4.333 10.865 4.333C4.975 4.333.2 9.11.2 15zm232.715 1.414a2 2 0 000-2.828L220.186.858a2 2 0 10-2.828 2.828L228.672 15l-11.314 11.314a2 2 0 002.828 2.828l12.728-12.728zM10.865 17H231.5v-4H10.865v4z" fill="#B98CFF"/><path d="M495.914 16.414a2 2 0 000-2.828L483.186.858a2 2 0 10-2.828 2.828L491.672 15l-11.314 11.314a2 2 0 002.828 2.828l12.728-12.728zM230 13a2 2 0 100 4v-4zm0 4h264.5v-4H230v4z" fill="#B98CFF"/><path d="M837.914 16.414a2 2 0 000-2.828L825.186.858a2 2 0 10-2.828 2.828L833.672 15l-11.314 11.314a2 2 0 002.828 2.828l12.728-12.728zM836.5 13H493.365v4H836.5v-4z" fill="#B98CFF"/><path d="M835 13a2 2 0 100 4v-4zm324.82 57c0 5.891 4.77 10.667 10.66 10.667 5.89 0 10.67-4.776 10.67-10.667s-4.78-10.667-10.67-10.667-10.66 4.776-10.66 10.667zm-44.34-55v2-2zM835 17h280.48v-4H835v4zm280.48 0c29.27 0 53 23.729 53 53h4c0-31.48-25.52-57-57-57v4z" fill="#B98CFF"/></svg>
